X:1
T:Da Christus Geboren, 77.77
T:Da Christus Geboren, 77.77
T:Probably by Johann Friedrich Doles (1715-1797)
T:Public Domain Courtesy of the Cyber Hymnal™
C:Probably by Johann Friedrich Doles (1715-1797)
Z:Public Domain
Z:Courtesy of the Cyber Hymnal™
%%score ( 1 2 ) ( 3 4 )
L:1/8
Q:1/4=110
M:4/4
K:D
V:1 treble 
V:2 treble 
V:3 bass 
V:4 bass 
V:1
 (DE) (FG) A2 [B,B]2 | [B,G]2 (AG) [DF]4 | [Dd]2 [Ec]2 B2 (AB) | [Ac]2 [^GB]2 A4 x | %4
 [Ad]2 [Ac]2 [GB]2 =c2 | [GB]2 [DA]2 G4 | [EA]2 E2 [DF]2 [DG]2 | [DF]2 [CE]2 D4 x |] %8
V:2
 D2 D2 (DC) x2 | x2 C2 x4 | x4 (F^G) A2 | x4 A4 x | x6 (EF) | x4 (G2 F2) | x2 DC x4 | x4 D4 x |] %8
V:3
 [D,F,]2 [B,,B,]2 [F,A,]2 G,2 | [E,G,]2 [A,,E,]2 [D,F,]4 | [B,,B,]2 [C,A,]2 D2 (CD) | %3
 C3 z D [A,C]4 | [F,D]2 [=CD]2 [B,D]2 [A,C]2 | [G,D]2 [F,D]2 B,4 | [C,E,]2 A,2 [D,A,]2 [G,,B,]2 | %7
 A,3 z G, [D,F,]4 |] %8
V:4
 x6 G,2 | x8 | x4 (D,E,) F,2 | E,2 E,2 x5 | x8 | x4 (E,2 D,2) | x2 (B,,A,,) x4 | A,,2 A,,2 x5 |] %8

